X:1
T:Christ Liveth in Me
T:Christ Liveth in Me
T:James McGranahan
T:Daniel W. Whittle, pub.1891
T:PUBLIC DOMAIN
C:James McGranahan
Z:Daniel W. Whittle, pub.1891
Z:PUBLIC DOMAIN
%%score ( 1 2 ) ( 3 4 )
L:1/8
Q:1/4=140
M:6/4
K:G
V:1 treble nm="Treble"
V:2 treble 
V:3 bass nm="Bass"
V:4 bass 
V:1
 [B,D]2 | [DB]4 [CA]2 [B,G]4 [DG]2 | (([EG]2 [DF]2)) [CE]2 [B,D]4 [B,D]2 | %3
w: 1.~Once|far from God and|dead * in sin, No|
w: 2.~As|rays of light from|yon- _ der sun, The|
w: 3.~As|lives the flow’r with-|in * the seed, As|
w: 4.~With|long- ing all my|heart * is filled, That|
 [CE]4 [EG]2 [Ec]4 [Ge]2 | [Gd]6 [Gd]4 | [Dc]2 | [DB]4 [DB]2 (B2 A2) B2 | %7
w: light my heart could|see; *|But|in God’s Word * the|
w: flow’rs of earth set|free, *|So|life and light * and|
w: in the cone the|tree, *|So,|praise the God * of|
w: like Him I may|be, *|As|on the won- _ drous|
 [=Fd]4 [Ec]2 [EG]4 [EA]2 | [DB]4 [DB]2 [CA]3 [CD] [CA]2 | [B,G]6 [B,G]4 z2 || %10
w: light I found, Now|Christ * liv- eth in|me. *|
w: love came forth From|Christ * liv- ing in|me. *|
w: truth and grace, His|Spir- it dwell- eth in|me. *|
w: thought I dwell That|Christ * liv- eth in|me. *|
"^Refrain" [GB]6 [Bd]3 [Ac] [GB]2 | [FA]12 | [EG]6 [GB]3 [FA] [EG]2 | [^DF]12 | %14
w: Christ liv- eth in|me,|Christ liv- eth in|me,|
w: ||||
w: ||||
w: ||||
 [CE]6 [EG]2 [Ec]2 [Ge]2 | [Gd]4 [DB]2 [DG]4 [EA]2 | [DB]6 [CA]3 [CD] [CA]2 | [B,G]6 [B,G]4 |] %18
w: Oh! what a sal-|va- tion this, That|Christ liv- eth in|me. *|
w: ||||
w: ||||
w: ||||
V:2
 x2 | x12 | x12 | x12 | x10 | x2 | z6 D4 (D=F) | x12 | x12 | x12 || x12 | x12 | x12 | x12 | x12 | %15
 x12 | x12 | x10 |] %18
V:3
 [G,,G,]2 | [G,,G,]4 [D,F,]2 [E,G,]4 [B,,G,]2 | [C,G,]4 [C,G,]2 [G,,G,]4 [G,,G,]2 | %3
w: |||
 [C,G,]4 [C,G,]2 [C,G,]4 [C,C]2 | [G,B,]6 [G,B,]4 | [F,A,]2 | G,4 G,2 (G,2 A,2) G,2 | %7
w: ||||
 [C,G,]4 [C,G,]2 [C,C]4 [C,C]2 | [D,G,]4 [D,G,]2 [D,F,]3 [D,F,] [D,F,]2 | [G,,G,]6 [G,,G,]4 z2 || %10
w: |||
 z12 | [D,D]6 [D,D]3 [D,D] [D,C]2 | [E,B,]12 | [B,,B,]6 [B,,B,]3 [B,,B,] [B,,A,]2 | %14
w: |Christ liv- eth in|me,|Christ liv- eth in|
 [C,G,]4 [C,G,]2 [C,C]2 [C,C]2 [C,C]2 | [G,B,]4 G,2 [B,,G,]4 [C,G,]2 | [D,G,]6 [D,F,]3 [D,F,] D,2 | %17
w: me, Oh! * * *|||
 [G,,D,]6 [G,,D,]4 |] %18
w: |
V:4
 x2 | x12 | x12 | x12 | x10 | x2 | G,4 G,2 (G,2 F,2) G,2 | x12 | x12 | x12 || x12 | x12 | x12 | %13
 x12 | x12 | z4 G,2 z6 | z6 z3 z D,2 | x10 |] %18

